public/assets/img/icons/twitter.svg

<svg width="20" height="16" viewBox="0 0 20 16" fill="none" xmlns="http://www.w3.org/2000/svg">
<path d="M20 1.89418C19.2642 2.21575 18.4733 2.43232 17.6433 2.52994C18.4908 2.03035 19.1417 1.23872 19.4475 0.295324C18.655 0.757998 17.7767 1.09434 16.8417 1.27564C16.0942 0.490566 15.0267 0 13.8467 0C11.1975 0 9.25083 2.43314 9.84917 4.95898C6.44 4.79081 3.41667 3.18294 1.3925 0.73913C0.3175 2.55455 0.835 4.92945 2.66167 6.13207C1.99 6.11075 1.35667 5.92945 0.804167 5.62674C0.759167 7.49795 2.12167 9.24856 4.095 9.63823C3.5175 9.79245 2.885 9.82855 2.24167 9.70714C2.76333 11.3117 4.27833 12.4791 6.075 12.5119C4.35 13.8433 2.17667 14.4381 0 14.1854C1.81583 15.3314 3.97333 16 6.29 16C13.9083 16 18.2125 9.66612 17.9525 3.98523C18.7542 3.41509 19.45 2.70386 20 1.89418Z" fill="white"/>
</svg>

<svg width="20" height="16" fill="none" xmlns="http://www.w3.org/2000/svg"><path d="M20 1.894a8.294 8.294 0 0 1-2.357.636A4.058 4.058 0 0 0 19.448.295a8.299 8.299 0 0 1-2.606.98A4.127 4.127 0 0 0 13.847 0c-2.65 0-4.596 2.433-3.998 4.959A11.71 11.71 0 0 1 1.392.739a4.007 4.007 0 0 0 1.27 5.393 4.135 4.135 0 0 1-1.858-.505C.76 7.498 2.122 9.249 4.095 9.638c-.577.154-1.21.19-1.853.07.521 1.604 2.036 2.771 3.833 2.804A8.344 8.344 0 0 1 0 14.185 11.75 11.75 0 0 0 6.29 16c7.618 0 11.922-6.334 11.663-12.015A8.282 8.282 0 0 0 20 1.895z" fill="#fff"/></svg>
